(Exported by FreeCAD)
(Post Processor: linuxcnc_post)
(Output Time:2020-04-16 16:35:32.726133)
(begin preamble)
G17 G54 G40 G49 G80 G90
G20
(begin operation: T2: End Mill 1/4")
(machine: not set, in/min)
(T2: End Mill 1/4")
M6 T2
M3 S2500
(finish operation: T2: End Mill 1/4")
(begin operation: Profile_Faces)
(machine: not set, in/min)
(Profile_Faces)
(Compensated Tool Path. Diameter: 6.35)
G0 Z1.5000
G0 X5.7500 Y2.0000 Z1.2404
G0 Z1.5000
G1 X5.3700 Y2.0000 Z0.7904 F4.0000
G2 X6.1782 Y2.8770 Z0.7904 I0.8800 J0.0000 F4.0000
G2 X7.1270 Y2.0718 Z0.7904 I0.0718 J-0.8770 F4.0000
G2 X6.3218 Y1.1230 Z0.7904 I-0.8770 J-0.0718 F4.0000
G2 X5.3700 Y2.0000 Z0.7904 I-0.0718 J0.8770 F4.0000
G1 X5.3700 Y2.0000 Z0.5404 F4.0000
G2 X6.1782 Y2.8770 Z0.5404 I0.8800 J0.0000 F4.0000
G2 X7.1270 Y2.0718 Z0.5404 I0.0718 J-0.8770 F4.0000
G2 X6.3218 Y1.1230 Z0.5404 I-0.8770 J-0.0718 F4.0000
G2 X5.3700 Y2.0000 Z0.5404 I-0.0718 J0.8770 F4.0000
G1 X5.3700 Y2.0000 Z0.2904 F4.0000
G2 X6.1782 Y2.8770 Z0.2904 I0.8800 J0.0000 F4.0000
G2 X7.1270 Y2.0718 Z0.2904 I0.0718 J-0.8770 F4.0000
G2 X6.3218 Y1.1230 Z0.2904 I-0.8770 J-0.0718 F4.0000
G2 X5.3700 Y2.0000 Z0.2904 I-0.0718 J0.8770 F4.0000
G1 X5.3700 Y2.0000 Z0.0404 F4.0000
G2 X6.1782 Y2.8770 Z0.0404 I0.8800 J0.0000 F4.0000
G2 X7.1270 Y2.0718 Z0.0404 I0.0718 J-0.8770 F4.0000
G2 X6.3218 Y1.1230 Z0.0404 I-0.8770 J-0.0718 F4.0000
G2 X5.3700 Y2.0000 Z0.0404 I-0.0718 J0.8770 F4.0000
G1 X5.3700 Y2.0000 Z0.0000 F4.0000
G2 X6.1782 Y2.8770 Z0.0000 I0.8800 J0.0000 F4.0000
G2 X7.1270 Y2.0718 Z0.0000 I0.0718 J-0.8770 F4.0000
G2 X6.3218 Y1.1230 Z0.0000 I-0.8770 J-0.0718 F4.0000
G2 X5.3700 Y2.0000 Z0.0000 I-0.0718 J0.8770 F4.0000
G0 Z1.2404
(finish operation: Profile_Faces)
(begin postamble)
M05
G17 G54 G90 G80 G40
M2
