(Exported by FreeCAD)
(Post Processor: linuxcnc_post)
(Output Time:2020-04-12 13:52:35.244471)
(begin preamble)
G17 G54 G40 G49 G80 G90
G20
(begin operation: T1: Drill Bit 3/8)
(machine: not set, in/min)
(T1: Drill Bit 3/8)
M6 T1
M3 S800
(finish operation: T1: Drill Bit 3/8)
(begin operation: Drilling)
(machine: not set, in/min)
(Drilling)
(Begin Drilling)
G0 Z0.2000
G90
G98
G83 X0.5000 Y0.5000 Z-0.3612 F2.0000 Q0.1000 R0.3900
G83 X0.5000 Y1.5000 Z-0.3612 F2.0000 Q0.1000 R0.3900
G83 X0.5000 Y2.5000 Z-0.3612 F2.0000 Q0.1000 R0.3900
G83 X0.5000 Y3.5000 Z-0.3612 F2.0000 Q0.1000 R0.3900
G83 X1.5000 Y3.5000 Z-0.3612 F2.0000 Q0.1000 R0.3900
G83 X1.5000 Y2.5000 Z-0.3612 F2.0000 Q0.1000 R0.3900
G83 X1.5000 Y1.5000 Z-0.3612 F2.0000 Q0.1000 R0.3900
G83 X1.5000 Y0.5000 Z-0.3612 F2.0000 Q0.1000 R0.3900
G83 X2.5000 Y0.5000 Z-0.3612 F2.0000 Q0.1000 R0.3900
G83 X2.5000 Y1.5000 Z-0.3612 F2.0000 Q0.1000 R0.3900
G83 X2.5000 Y2.5000 Z-0.3612 F2.0000 Q0.1000 R0.3900
G83 X2.5000 Y3.5000 Z-0.3612 F2.0000 Q0.1000 R0.3900
G83 X3.5000 Y3.5000 Z-0.3612 F2.0000 Q0.1000 R0.3900
G83 X3.5000 Y2.5000 Z-0.3612 F2.0000 Q0.1000 R0.3900
G83 X3.5000 Y1.5000 Z-0.3612 F2.0000 Q0.1000 R0.3900
G83 X3.5000 Y0.5000 Z-0.3612 F2.0000 Q0.1000 R0.3900
G83 X4.5000 Y0.5000 Z-0.3612 F2.0000 Q0.1000 R0.3900
G83 X4.5000 Y1.5000 Z-0.3612 F2.0000 Q0.1000 R0.3900
G83 X4.5000 Y2.5000 Z-0.3612 F2.0000 Q0.1000 R0.3900
G83 X4.5000 Y3.5000 Z-0.3612 F2.0000 Q0.1000 R0.3900
G83 X5.5000 Y3.5000 Z-0.3612 F2.0000 Q0.1000 R0.3900
G83 X5.5000 Y2.5000 Z-0.3612 F2.0000 Q0.1000 R0.3900
G83 X5.5000 Y1.5000 Z-0.3612 F2.0000 Q0.1000 R0.3900
G83 X5.5000 Y0.5000 Z-0.3612 F2.0000 Q0.1000 R0.3900
G83 X6.5000 Y0.5000 Z-0.3612 F2.0000 Q0.1000 R0.3900
G83 X6.5000 Y1.5000 Z-0.3612 F2.0000 Q0.1000 R0.3900
G83 X6.5000 Y2.5000 Z-0.3612 F2.0000 Q0.1000 R0.3900
G83 X6.5000 Y3.5000 Z-0.3612 F2.0000 Q0.1000 R0.3900
G83 X7.5000 Y3.5000 Z-0.3612 F2.0000 Q0.1000 R0.3900
G83 X7.5000 Y2.5000 Z-0.3612 F2.0000 Q0.1000 R0.3900
G83 X7.5000 Y1.5000 Z-0.3612 F2.0000 Q0.1000 R0.3900
G83 X7.5000 Y0.5000 Z-0.3612 F2.0000 Q0.1000 R0.3900
G80
G0 Z0.2000
(finish operation: Drilling)
(begin postamble)
M05
G17 G54 G90 G80 G40
M2
